X:27
T:Prelude BWV 931
C:Johann Sebastian Bach
Z:Frank Nordberg <frnordbe@online.no>
V:1 % up
V:2 % merge down
V:3 clef=bass % up
V:4 clef=bass % merge down
M:C
L:1/8
K:Am
V:1
[c4e4]d2f/ed/|x2e2xA/4B/4c/f2|B2[G2B2]c2zB|
V:2
A4B2B2|McMd z^G AA MB>A|^G2[E2G2]A2zG|
V:3
A,,2x2x4|x2 zE,F,4|x4x2E,E,,|
V:4
x2A,4^G,2|A,2x2z2D,2|E,2zE, C,MB,,/A,,/ x2|
%
V:1
(Bc) (BA) B2zA|(AB) (AG) GA G^F|G2ABc2de|
V:2
^GA =G^FG2z^F|^FG FE EF E^D|E2^F^GA2B^c|
V:3
A,,2zD, B,,MA,,/G,,/ D,D,,|G,,2x2x4|x2C,B,,x4|
V:4
x8|x2zC A,G,/^F,/ B,B,,|E,D, x2 A,,=G, M=F,E,|
%
V:1
f2^GA Bc d/cB/|c/4B/4A/B/c/ B>A[E4A4]|]
V:2
d2E^FG2A2-|A2^G2^C4|]
V:3
zD2 C,B,,2A,,2|E,4-E,E,A,2|]
V:4
D,3xx4|z2E,,2A,,4|]
